X:1
T: The Highlandman Kissed his Mother
C:
R:Reel
Q: 232
K:C
M:4/4
L:1/8
|:B|cg ge gc ge|cg ge dB GB|cg ge gc ge|af ge dB GB|
cg ge gc ge|cg ge dB GB|cg ge gc ge|af ge dB GB|
ce Ae ce Ae|ce Ae dB GB|ce Ae ce Ag|af ge dB GB|
ce Ae ce Ae|ce Ae dB GB|ce Ae ce Ag|af ge dB G:|
